images/PREMA.svg

<svg height="250" viewBox="0 0 250 250" width="250" xmlns="http://www.w3.org/2000/svg"><path d="m213.398438 36.613281c48.816406 48.8125 48.816406 127.960938 0 176.773438-48.8125 48.816406-127.960938 48.816406-176.773438 0-48.816406-48.8125-48.816406-127.960938 0-176.773438 48.8125-48.816406 127.960938-48.816406 176.773438 0zm0 0" fill="#b10000"/><path d="m200.46875 60.472656-68.4375-39.515625c-1.488281-.859375-3.328125-.859375-4.820312 0l-68.460938 39.539063c-1.488281.863281-2.398438 2.445312-2.398438 4.167968v140.488282c0 1.722656.910157 3.304687 2.398438 4.167968l34.230469 19.769532c.746093.417968 1.585937.652344 2.398437.652344.816406 0 1.65625-.210938 2.398438-.652344l34.230468-19.769532c1.492188-.863281 2.398438-2.445312 2.398438-4.167968v-19.144532l66.039062-38.117187c.351563-.1875.652344-.441406.910157-.699219.070312-.070312.140625-.164062.210937-.234375.183594-.207031.371094-.441406.511719-.671875.046875-.09375.117187-.1875.160156-.28125.164063-.324218.328125-.652344.421875-1 0 0 0 0 0-.023437.09375-.375.140625-.746094.140625-1.117188 0-.046875 0-.09375 0-.117187v-79.105469c0-1.722656-.910156-3.304687-2.398437-4.167969zm-70.859375-29.78125 58.820313 33.949219-18.441407 10.644531-6.148437 3.539063-31.808594-18.375-20.582031-11.875-6.429688-3.703125 24.589844-14.203125zm-39.050781 93.238282v92.609374l-24.589844-14.207031v-129.351562l24.589844 14.203125zm4.820312-45.082032-1.535156-.886718-23.078125-13.320313 24.589844-14.203125 24.589843 14.203125-24.589843 14.207031zm29.410156 123.484375-24.589843 14.207031v-44.757812l24.589843 14.207031zm0-27.476562-24.589843-14.203125v-28.386719l24.589843 14.203125zm4.820313-36.746094-29.410156-16.976563v-33.949218l29.410156-16.976563 29.410156 16.976563v33.949218zm63.640625 2.773437-14.691406 8.496094-44.105469 25.476563v-28.410157l58.820313-33.949218v28.410156zm0-39.519531-3.632812 2.097657-20.957032 12.109374v-28.410156l6.148438-3.539062 18.441406-10.640625v28.40625zm0 0" fill="#fff"/></svg>

<svg xmlns="http://www.w3.org/2000/svg" xmlns:xlink="http://www.w3.org/1999/xlink" width="250px" height="250px" viewBox="0 0 250 250" version="1.1">
<g id="surface1">
<path style=" stroke:none;fill-rule:nonzero;fill:rgb(69.411767%,0%,0%);fill-opacity:1;" d="M 213.398438 36.613281 C 262.214844 85.425781 262.214844 164.574219 213.398438 213.386719 C 164.585938 262.203125 85.4375 262.203125 36.625 213.386719 C -12.191406 164.574219 -12.191406 85.425781 36.625 36.613281 C 85.4375 -12.203125 164.585938 -12.203125 213.398438 36.613281 Z M 213.398438 36.613281 "/>
<path style=" stroke:none;fill-rule:nonzero;fill:rgb(100%,100%,100%);fill-opacity:1;" d="M 200.46875 60.472656 L 132.03125 20.957031 C 130.542969 20.097656 128.703125 20.097656 127.210938 20.957031 L 58.75 60.496094 C 57.261719 61.359375 56.351562 62.941406 56.351562 64.664062 L 56.351562 205.152344 C 56.351562 206.875 57.261719 208.457031 58.75 209.320312 L 92.980469 229.089844 C 93.726562 229.507812 94.566406 229.742188 95.378906 229.742188 C 96.195312 229.742188 97.035156 229.53125 97.777344 229.089844 L 132.007812 209.320312 C 133.5 208.457031 134.40625 206.875 134.40625 205.152344 L 134.40625 186.007812 L 200.445312 147.890625 C 200.796875 147.703125 201.097656 147.449219 201.355469 147.191406 C 201.425781 147.121094 201.496094 147.027344 201.566406 146.957031 C 201.75 146.75 201.9375 146.515625 202.078125 146.285156 C 202.125 146.191406 202.195312 146.097656 202.238281 146.003906 C 202.402344 145.679688 202.566406 145.351562 202.660156 145.003906 C 202.660156 145.003906 202.660156 145.003906 202.660156 144.980469 C 202.753906 144.605469 202.800781 144.234375 202.800781 143.863281 C 202.800781 143.816406 202.800781 143.769531 202.800781 143.746094 L 202.800781 64.640625 C 202.800781 62.917969 201.890625 61.335938 200.402344 60.472656 Z M 129.609375 30.691406 L 188.429688 64.640625 L 169.988281 75.285156 L 163.839844 78.824219 L 132.03125 60.449219 L 111.449219 48.574219 L 105.019531 44.871094 L 129.609375 30.667969 Z M 90.558594 123.929688 L 90.558594 216.539062 L 65.96875 202.332031 L 65.96875 72.980469 L 90.558594 87.183594 Z M 95.378906 78.847656 L 93.84375 77.960938 L 70.765625 64.640625 L 95.355469 50.4375 L 119.945312 64.640625 L 95.355469 78.847656 Z M 124.789062 202.332031 L 100.199219 216.539062 L 100.199219 171.78125 L 124.789062 185.988281 Z M 124.789062 174.855469 L 100.199219 160.652344 L 100.199219 132.265625 L 124.789062 146.46875 Z M 129.609375 138.109375 L 100.199219 121.132812 L 100.199219 87.183594 L 129.609375 70.207031 L 159.019531 87.183594 L 159.019531 121.132812 Z M 193.25 140.882812 L 178.558594 149.378906 L 134.453125 174.855469 L 134.453125 146.445312 L 193.273438 112.496094 L 193.273438 140.90625 Z M 193.25 101.363281 L 189.617188 103.460938 L 168.660156 115.570312 L 168.660156 87.160156 L 174.808594 83.621094 L 193.25 72.980469 L 193.25 101.386719 Z M 193.25 101.363281 "/>
</g>
</svg>
